public/images/partners/Cisco.svg

<svg width="96" height="50" viewBox="0 0 96 50" fill="none" xmlns="http://www.w3.org/2000/svg">
<g id="Cisco_logo 1" clip-path="url(#clip0_20314_1146)">
<path id="path10" d="M47.6424 33.4379C47.5187 33.4041 45.6156 32.9133 43.5933 32.9133C39.7643 32.9133 37.4591 34.9809 37.4591 38.0598C37.4591 40.7853 39.3876 42.1445 41.702 42.8756C41.9586 42.9603 42.3367 43.0787 42.5885 43.162C43.6187 43.4861 44.4411 43.9677 44.4411 44.8019C44.4411 45.7348 43.4906 46.3388 41.4244 46.3388C39.6086 46.3388 37.8678 45.8195 37.5012 45.7269V49.5151C37.7056 49.5585 39.7744 49.9646 41.9845 49.9646C45.1635 49.9646 48.7999 48.5756 48.7999 44.4405C48.7999 42.4348 47.5718 40.5883 44.8757 39.7313L43.7297 39.3664C43.0459 39.1506 41.8253 38.801 41.8253 37.7989C41.8253 37.0072 42.7297 36.4497 44.395 36.4497C45.8319 36.4497 47.5806 36.9326 47.6424 36.9519V33.4379ZM82.7481 41.4392C82.7481 43.8344 80.9135 45.7721 78.4516 45.7721C75.9871 45.7721 74.1573 43.8344 74.1573 41.4392C74.1573 39.0489 75.9871 37.1103 78.4516 37.1103C80.9135 37.1103 82.7481 39.0489 82.7481 41.4392ZM78.4516 32.9186C73.3885 32.9186 69.7573 36.7375 69.7573 41.4392C69.7573 46.1484 73.3885 49.9646 78.4516 49.9646C83.5143 49.9646 87.1507 46.1484 87.1507 41.4392C87.1507 36.7375 83.5143 32.9186 78.4516 32.9186ZM31.8885 49.6717H27.7341V33.2103H31.8885" fill="#049FD9"/>
<path id="path12" d="M22.024 33.5085C21.6337 33.3927 20.1907 32.9186 18.2363 32.9186C13.1811 32.9186 9.47009 36.523 9.47009 41.4392C9.47009 46.7431 13.5666 49.9646 18.2363 49.9646C20.0916 49.9646 21.5078 49.5252 22.024 49.3787V44.9598C21.8455 45.0589 20.4876 45.8335 18.5341 45.8335C15.7666 45.8335 13.9815 43.8857 13.9815 41.4392C13.9815 38.9181 15.8438 37.0484 18.5341 37.0484C20.521 37.0484 21.8569 37.8401 22.024 37.9274" fill="#049FD9"/>
<path id="use14" d="M65.3837 33.5085C64.9933 33.3927 63.5503 32.9186 61.5959 32.9186C56.5407 32.9186 52.8297 36.523 52.8297 41.4392C52.8297 46.7431 56.9262 49.9646 61.5959 49.9646C63.4512 49.9646 64.8674 49.5252 65.3837 49.3787V44.9598C65.2051 45.0589 63.8473 45.8335 61.8937 45.8335C59.1262 45.8335 57.3411 43.8857 57.3411 41.4392C57.3411 38.9181 59.2034 37.0484 61.8937 37.0484C63.8806 37.0484 65.2166 37.8401 65.3837 37.9274" fill="#049FD9"/>
<g id="g22">
<path id="path16" d="M27.7218 2.08742C27.7218 0.952768 26.7951 0.0325928 25.6591 0.0325928C24.5236 0.0325928 23.5968 0.952768 23.5968 2.08742V23.9471C23.5968 25.0883 24.5236 26.008 25.6591 26.008C26.7951 26.008 27.7218 25.0883 27.7218 23.9471V2.08742ZM16.3933 9.84707C16.3933 8.71286 15.467 7.79137 14.331 7.79137C13.1951 7.79137 12.2687 8.71286 12.2687 9.84707V19.8405C12.2687 20.9813 13.1951 21.9015 14.331 21.9015C15.467 21.9015 16.3933 20.9813 16.3933 19.8405V9.84707ZM5.06524 15.519C5.06524 14.3843 4.13892 13.4646 3.00295 13.4646C1.86831 13.4646 0.940674 14.3843 0.940674 15.519V19.8405C0.940674 20.9813 1.86831 21.9015 3.00295 21.9015C4.13892 21.9015 5.06524 20.9813 5.06524 19.8405" fill="#049FD9"/>
<path id="use18" d="M23.5968 2.08742C23.5968 0.952768 24.5235 0.0325928 25.6595 0.0325928C26.795 0.0325928 27.7218 0.952768 27.7218 2.08742V23.9471C27.7218 25.0883 26.795 26.008 25.6595 26.008C24.5235 26.008 23.5968 25.0883 23.5968 23.9471V2.08742ZM34.9253 9.84707C34.9253 8.71286 35.8516 7.79137 36.9876 7.79137C38.1235 7.79137 39.0499 8.71286 39.0499 9.84707V19.8405C39.0499 20.9813 38.1235 21.9015 36.9876 21.9015C35.8516 21.9015 34.9253 20.9813 34.9253 19.8405V9.84707ZM46.2534 15.519C46.2534 14.3843 47.1797 13.4646 48.3156 13.4646C49.4503 13.4646 50.3779 14.3843 50.3779 15.519V19.8405C50.3779 20.9813 49.4503 21.9015 48.3156 21.9015C47.1797 21.9015 46.2534 20.9813 46.2534 19.8405" fill="#049FD9"/>
</g>
<g id="use20">
<path id="path16_2" d="M68.8964 2.08742C68.8964 0.952768 69.8231 0.0325928 70.9591 0.0325928C72.0946 0.0325928 73.0214 0.952768 73.0214 2.08742V23.9471C73.0214 25.0883 72.0946 26.008 70.9591 26.008C69.8231 26.008 68.8964 25.0883 68.8964 23.9471V2.08742ZM80.2249 9.84707C80.2249 8.71286 81.1512 7.79137 82.2871 7.79137C83.4231 7.79137 84.3494 8.71286 84.3494 9.84707V19.8405C84.3494 20.9813 83.4231 21.9015 82.2871 21.9015C81.1512 21.9015 80.2249 20.9813 80.2249 19.8405V9.84707ZM91.5529 15.519C91.5529 14.3843 92.4792 13.4646 93.6152 13.4646C94.7499 13.4646 95.6775 14.3843 95.6775 15.519V19.8405C95.6775 20.9813 94.7499 21.9015 93.6152 21.9015C92.4792 21.9015 91.5529 20.9813 91.5529 19.8405" fill="#049FD9"/>
<path id="use18_2" d="M73.0214 2.08742C73.0214 0.952768 72.0946 0.0325928 70.9587 0.0325928C69.8231 0.0325928 68.8964 0.952768 68.8964 2.08742V23.9471C68.8964 25.0883 69.8231 26.008 70.9587 26.008C72.0946 26.008 73.0214 25.0883 73.0214 23.9471V2.08742ZM61.6929 9.84707C61.6929 8.71286 60.7665 7.79137 59.6306 7.79137C58.4946 7.79137 57.5683 8.71286 57.5683 9.84707V19.8405C57.5683 20.9813 58.4946 21.9015 59.6306 21.9015C60.7665 21.9015 61.6929 20.9813 61.6929 19.8405V9.84707ZM50.3648 15.519C50.3648 14.3843 49.4385 13.4646 48.3025 13.4646C47.1679 13.4646 46.2402 14.3843 46.2402 15.519V19.8405C46.2402 20.9813 47.1679 21.9015 48.3025 21.9015C49.4385 21.9015 50.3648 20.9813 50.3648 19.8405" fill="#049FD9"/>
</g>
</g>
<defs>
<clipPath id="clip0_20314_1146">
<rect width="94.7368" height="50" fill="white" transform="translate(0.940674 0.00012207)"/>
</clipPath>
</defs>
</svg>

<svg xmlns="http://www.w3.org/2000/svg" width="96" height="50" fill="none"><g fill="#049FD9" clip-path="url(#a)"><path d="M47.642 33.438c-.123-.034-2.026-.525-4.049-.525-3.829 0-6.134 2.068-6.134 5.147 0 2.725 1.929 4.084 4.243 4.816.257.084.635.203.887.286 1.03.324 1.852.806 1.852 1.64 0 .933-.95 1.537-3.017 1.537-1.815 0-3.556-.52-3.923-.612v3.788c.205.044 2.273.45 4.483.45 3.18 0 6.816-1.39 6.816-5.525 0-2.005-1.228-3.852-3.924-4.709l-1.146-.365c-.684-.215-1.905-.565-1.905-1.567 0-.792.905-1.35 2.57-1.35 1.437 0 3.186.484 3.247.503zm35.106 8.001c0 2.395-1.835 4.333-4.296 4.333-2.465 0-4.295-1.938-4.295-4.333 0-2.39 1.83-4.329 4.295-4.329 2.462 0 4.296 1.939 4.296 4.33m-4.296-8.52c-5.064 0-8.695 3.819-8.695 8.52 0 4.71 3.631 8.526 8.695 8.526 5.062 0 8.699-3.817 8.699-8.526 0-4.702-3.637-8.52-8.7-8.52M31.889 49.672h-4.155V33.21h4.154m-9.864.299c-.39-.116-1.833-.59-3.788-.59-5.055 0-8.766 3.604-8.766 8.52 0 5.304 4.097 8.526 8.766 8.526 1.856 0 3.272-.44 3.788-.586v-4.42c-.178.1-1.536.874-3.49.874-2.767 0-4.552-1.947-4.552-4.394 0-2.52 1.862-4.39 4.552-4.39 1.987 0 3.323.791 3.49.878m43.36-4.418c-.39-.116-1.834-.59-3.788-.59-5.055 0-8.766 3.604-8.766 8.52 0 5.304 4.096 8.526 8.766 8.526 1.855 0 3.271-.44 3.788-.586v-4.42c-.179.1-1.537.874-3.49.874-2.768 0-4.553-1.947-4.553-4.394 0-2.52 1.862-4.39 4.553-4.39 1.987 0 3.323.791 3.49.878M27.722 2.087A2.06 2.06 0 0 0 25.659.033a2.06 2.06 0 0 0-2.062 2.054v21.86a2.062 2.062 0 0 0 4.125 0zm-11.329 7.76a2.062 2.062 0 0 0-4.125 0v9.993a2.062 2.062 0 0 0 4.125 0zM5.065 15.52a2.06 2.06 0 0 0-2.062-2.054A2.06 2.06 0 0 0 .941 15.52v4.321a2.063 2.063 0 0 0 4.124 0"/><path d="M23.597 2.087A2.06 2.06 0 0 1 25.66.033a2.06 2.06 0 0 1 2.062 2.054v21.86a2.062 2.062 0 0 1-4.125 0zm11.328 7.76a2.063 2.063 0 0 1 4.125 0v9.994a2.062 2.062 0 0 1-4.125 0zm11.328 5.672a2.06 2.06 0 0 1 2.063-2.054c1.134 0 2.062.92 2.062 2.054v4.321a2.063 2.063 0 0 1-4.125 0M68.896 2.087A2.06 2.06 0 0 1 70.959.033a2.06 2.06 0 0 1 2.062 2.054v21.86a2.062 2.062 0 0 1-4.125 0zm11.329 7.76a2.062 2.062 0 0 1 4.124 0v9.994a2.062 2.062 0 0 1-4.124 0zm11.328 5.672a2.06 2.06 0 0 1 2.062-2.054c1.135 0 2.063.92 2.063 2.054v4.321a2.063 2.063 0 0 1-4.125 0"/><path d="M73.021 2.087A2.06 2.06 0 0 0 70.96.033a2.06 2.06 0 0 0-2.063 2.054v21.86a2.062 2.062 0 0 0 4.125 0zm-11.328 7.76a2.062 2.062 0 0 0-4.125 0v9.994a2.062 2.062 0 0 0 4.125 0zM50.365 15.52a2.06 2.06 0 0 0-2.062-2.054c-1.135 0-2.063.92-2.063 2.054v4.321a2.063 2.063 0 0 0 4.125 0"/></g><defs><clipPath id="a"><path fill="#fff" d="M.94 0h94.738v50H.94z"/></clipPath></defs></svg>
